packages/symbols/svgs/solid/cart-shopping-solid.svg

<svg width="16" height="16" viewBox="0 0 16 16" fill="none" xmlns="http://www.w3.org/2000/svg">
<g clip-path="url(#clip0_650_2826)">
<path fill-rule="evenodd" clip-rule="evenodd" d="M15 3L4.5 3L4 0.8C3.9 0.3 3.5 6.11959e-07 3 5.24537e-07L0 0L-3.49691e-07 2L2.2 2L4 10.2C4.1 10.7 4.5 11 5 11L13 11C13.4 11 13.8 10.7 13.9 10.3L15.9 4.3C16.1 3.8 15.8 3 15 3ZM5 16C6.10457 16 7 15.1046 7 14C7 12.8954 6.10457 12 5 12C3.89543 12 3 12.8954 3 14C3 15.1046 3.89543 16 5 16ZM15 14C15 15.1046 14.1046 16 13 16C11.8954 16 11 15.1046 11 14C11 12.8954 11.8954 12 13 12C14.1046 12 15 12.8954 15 14Z" fill="black"/>
</g>
<defs>
<clipPath id="clip0_650_2826">
<rect width="16" height="16" fill="white"/>
</clipPath>
</defs>
</svg>

<svg width="16" height="16" viewBox="0 0 16 16" xmlns="http://www.w3.org/2000/svg"><g clip-path="url(#a)"><path fill-rule="evenodd" clip-rule="evenodd" d="M15 3H4.5L4 .8C3.9.3 3.5 0 3 0H0v2h2.2L4 10.2c.1.5.5.8 1 .8h8c.4 0 .8-.3.9-.7l2-6c.2-.5-.1-1.3-.9-1.3ZM5 16a2 2 0 1 0 0-4 2 2 0 0 0 0 4Zm10-2a2 2 0 1 1-4 0 2 2 0 0 1 4 0Z"/></g><defs><clipPath id="a"><path fill="#fff" d="M0 0h16v16H0z"/></clipPath></defs></svg>
